X: 16084
T: Green Fields Of Woodford, The
R: jig
M: 6/8
K: Edorian
|:e|ecB A2E|FEF ABc|fec ecB|cff faf|
ecB A2E|FEF ABc|BAF B2c|AFE E2:|
|:B|cAA eAA|fec ecB|cAA eAA|fec BAB|
cBc efa|baf ecA|BAF B2c|AFE E2:|

